packages/foundations/assets/icons/functional/images/business & payment/tickets_12.svg

<svg width="12" height="12" viewBox="0 0 12 12" fill="none" xmlns="http://www.w3.org/2000/svg">
<g clip-path="url(#clip0_231_140)">
<path fill-rule="evenodd" clip-rule="evenodd" d="M5.99198 3.59998C6.65498 3.59998 7.19998 4.12698 7.19998 4.78998V9.58998C7.19998 10.254 6.65498 10.8 5.99198 10.8H2.40798C2.24895 10.8008 2.09134 10.77 1.94429 10.7095C1.79724 10.6489 1.66366 10.5598 1.55131 10.4472C1.43895 10.3347 1.35004 10.201 1.28973 10.0538C1.22942 9.90666 1.19892 9.74901 1.19998 9.58998V4.78998C1.19998 4.12698 1.72598 3.59998 2.40798 3.59998H5.99198ZM5.99998 4.80998H2.38998V9.60998H5.99998V4.80998ZM3.29998 8.39998V7.19998H3.89998V8.39998H3.29998ZM4.49798 8.39998V7.19998H5.09798V8.39998H4.49798ZM4.79998 1.80298C4.79998 1.47298 5.07298 1.19998 5.40398 1.19998H9.59198C9.75083 1.19892 9.90831 1.2294 10.0553 1.28967C10.2023 1.34994 10.3358 1.43879 10.4482 1.55107C10.5605 1.66335 10.6495 1.79682 10.7099 1.94375C10.7703 2.09067 10.8009 2.24813 10.8 2.40698V7.19398C10.8008 7.35274 10.7701 7.51009 10.7096 7.6569C10.6492 7.80371 10.5602 7.93706 10.4478 8.04924C10.3355 8.16141 10.202 8.25017 10.055 8.31038C9.90814 8.37058 9.75074 8.40104 9.59198 8.39998H9.00798C8.8482 8.39919 8.69518 8.33544 8.58211 8.22256C8.46903 8.10967 8.40503 7.95675 8.40398 7.79698C8.40398 7.46598 8.67698 7.19398 9.00798 7.19398H9.59198V2.40698H5.40398C5.24403 2.40619 5.09086 2.3423 4.97776 2.2292C4.86466 2.1161 4.80077 1.96293 4.79998 1.80298Z" fill="#1A1C1F"/>
</g>
<defs>
<clipPath id="clip0_231_140">
<rect width="12" height="12" fill="white"/>
</clipPath>
</defs>
</svg>

<svg xmlns="http://www.w3.org/2000/svg" width="12" height="12" fill="none"><g clip-path="url(#a)"><path fill="#1A1C1F" fill-rule="evenodd" d="M5.992 3.6c.663 0 1.208.527 1.208 1.19v4.8c0 .664-.545 1.21-1.208 1.21H2.408A1.203 1.203 0 0 1 1.2 9.59v-4.8c0-.663.526-1.19 1.208-1.19zM6 4.81H2.39v4.8H6zM3.3 8.4V7.2h.6v1.2zm1.198 0V7.2h.6v1.2zM4.8 1.803c0-.33.273-.603.604-.603h4.188A1.2 1.2 0 0 1 10.8 2.407v4.787A1.2 1.2 0 0 1 9.592 8.4h-.584a.607.607 0 0 1-.604-.603c0-.331.273-.603.604-.603h.584V2.407H5.404a.607.607 0 0 1-.604-.604" clip-rule="evenodd"/></g><defs><clipPath id="a"><path fill="#fff" d="M0 0h12v12H0z"/></clipPath></defs></svg>
